icon/cg/select.svg

<svg viewBox="0 0 24 24" fill="none" xmlns="http://www.w3.org/2000/svg" height="1em" width="1em">
  <path d="M6 9.65685L7.41421 11.0711L11.6569 6.82843L15.8995 11.0711L17.3137 9.65685L11.6569 4L6 9.65685Z" fill="currentColor"/>
  <path d="M6 14.4433L7.41421 13.0291L11.6569 17.2717L15.8995 13.0291L17.3137 14.4433L11.6569 20.1001L6 14.4433Z" fill="currentColor"/>
</svg>

<svg width="24" height="24" fill="none" xmlns="http://www.w3.org/2000/svg"><path d="m6 9.657 1.414 1.414 4.243-4.243 4.242 4.243 1.415-1.414L11.657 4 6 9.657ZM6 14.443l1.414-1.414 4.243 4.243 4.242-4.243 1.415 1.414-5.657 5.657L6 14.443Z" fill="currentColor"/></svg>
